svgs/regular/industry-windows.svg

<svg xmlns="http://www.w3.org/2000/svg" viewBox="0 0 512 512"><!-- Font Awesome Pro 6.0.0-alpha2 by @fontawesome - https://fontawesome.com License - https://fontawesome.com/license (Commercial License) --><path d="M475.123 131.752L336 220.25V151.996C336 133.062 315.1 121.588 299.125 131.75L160 220.25V80C160 53.49 138.51 32 112 32H48C21.49 32 0 53.49 0 80V432C0 458.51 21.49 480 48 480H464C490.51 480 512 458.51 512 432V152C512 133.064 491.098 121.588 475.123 131.752ZM464 432H48V80H112V264C112 282.875 132.875 294.375 148.875 284.25L288 195.75V264C288 282.875 308.875 294.375 324.875 284.25L464 195.75V432ZM160 320H112C103.164 320 96 327.162 96 336V384C96 392.836 103.164 400 112 400H160C168.836 400 176 392.836 176 384V336C176 327.162 168.836 320 160 320ZM280 320H232C223.164 320 216 327.162 216 336V384C216 392.836 223.164 400 232 400H280C288.836 400 296 392.836 296 384V336C296 327.162 288.836 320 280 320ZM352 400H400C408.836 400 416 392.836 416 384V336C416 327.162 408.836 320 400 320H352C343.164 320 336 327.162 336 336V384C336 392.836 343.164 400 352 400Z"/></svg>

<svg xmlns="http://www.w3.org/2000/svg" viewBox="0 0 512 512"><!--! Font Awesome Pro 6.0.0-alpha3 by @fontawesome - https://fontawesome.com License - https://fontawesome.com/license (Commercial License) --><path d="M475.1 131.8L336 220.3V152c0-18.93-20.9-30.41-36.88-20.25L160 220.3V80C160 53.49 138.5 32 112 32h-64C21.49 32 0 53.49 0 80v352C0 458.5 21.49 480 48 480h416c26.51 0 48-21.49 48-48V152C512 133.1 491.1 121.6 475.1 131.8zM464 432h-416v-352h64v184c0 18.88 20.88 30.38 36.88 20.25L288 195.8V264c0 18.88 20.88 30.38 36.88 20.25L464 195.8V432zM160 320H112C103.2 320 96 327.2 96 336V384c0 8.836 7.164 16 16 16H160c8.836 0 16-7.164 16-16v-48C176 327.2 168.8 320 160 320zM280 320h-48c-8.836 0-16 7.162-16 16V384c0 8.836 7.164 16 16 16h48c8.836 0 16-7.164 16-16v-48C296 327.2 288.8 320 280 320zM352 400h48c8.836 0 16-7.164 16-16v-48c0-8.838-7.164-16-16-16H352c-8.836 0-16 7.162-16 16V384C336 392.8 343.2 400 352 400z"/></svg>
